icons/media/forward-10.svg

<svg width="32" height="32" viewBox="0 0 32 32" fill="none" xmlns="http://www.w3.org/2000/svg">
<path fill-rule="evenodd" clip-rule="evenodd" d="M26.9142 6.00025L26.2071 6.70736L21.2069 11.7076L19.7926 10.2934L23.0858 7.00024L15.4998 7.00024V7C9.70088 7.00013 5 11.7011 5 17.5C5 23.299 9.70101 28 15.5 28C21.299 28 26 23.299 26 17.5C26 16.1511 25.7462 14.864 25.2845 13.682L27.1475 12.9544C27.6982 14.3646 28 15.8982 28 17.5C28 24.4036 22.4036 30 15.5 30C8.59644 30 3 24.4036 3 17.5C3 10.5964 8.59644 5 15.5 5V5.00024L23.0858 5.00024L19.7926 1.7071L21.2069 0.292892L26.2071 5.29314L26.9142 6.00025ZM14.9998 23H8.99978V21H10.9998V16H8.99978V14H10.9998V13H12.9998V21H14.9998V23ZM17.0003 13L16.0003 14V22L17.0003 23H21.0003L22.0003 22V14L21.0003 13H17.0003ZM18.0003 21V15H20.0003V21H18.0003Z" fill="black"/>
</svg>

<svg viewBox="0 0 32 32" xmlns="http://www.w3.org/2000/svg"><path fill-rule="evenodd" d="M26.914 6l-.707.707-5 5-1.414-1.414L23.086 7H15.5C9.7 7 5 11.701 5 17.5S9.701 28 15.5 28 26 23.299 26 17.5c0-1.349-.254-2.636-.715-3.818l1.863-.728c.55 1.41.852 2.944.852 4.546C28 24.404 22.404 30 15.5 30S3 24.404 3 17.5 8.596 5 15.5 5h7.586l-3.293-3.293L21.207.293l5 5 .707.707zM15 23H9v-2h2v-5H9v-2h2v-1h2v8h2v2zm2-10l-1 1v8l1 1h4l1-1v-8l-1-1h-4zm1 8v-6h2v6h-2z"/></svg>
